build/img/log-out.svg

<svg width="21" height="21" viewBox="0 0 21 21" fill="none" xmlns="http://www.w3.org/2000/svg">
<path d="M7.4799 6.51033L10.7728 9.80322L0.187011 9.80322L0.187011 11.8032L10.7728 11.8032L7.4799 15.0961L8.89412 16.5103L14.6012 10.8032L8.89412 5.09612L7.4799 6.51033Z" fill="#9564AA"/>
<path d="M18.187 0.803222L14.187 0.803222L14.187 2.80322L18.187 2.80322L18.187 18.8032L14.187 18.8032L14.187 20.8032L18.187 20.8032C19.2916 20.8032 20.187 19.9078 20.187 18.8032L20.187 2.80322C20.187 1.69865 19.2916 0.803222 18.187 0.803222Z" fill="#9564AA"/>
</svg>

<svg width="21" height="21" fill="none" xmlns="http://www.w3.org/2000/svg"><path d="m7.48 6.51 3.293 3.293H.187v2h10.586L7.48 15.096l1.414 1.414 5.707-5.707-5.707-5.707L7.48 6.51Z" fill="#9564AA"/><path d="M18.187.803h-4v2h4v16h-4v2h4a2 2 0 0 0 2-2v-16a2 2 0 0 0-2-2Z" fill="#9564AA"/></svg>
